X: 2577
T: Ballymun Regatta, The
R: slip jig
M: 9/8
K: Edorian
~B3 BAF AFE|~B3 BAB dBA|~B3 BAF AFE|~e3 edB ABd:|
efg fed efg|afa bge afd|efg fed edB|dBA FAB def|
efg fed efg|afa bge afa|~b3 bge ~a3|~a3 afd dfd|efg afd edA|

